X:1
T:Calbuco, LMD
T:Calbuco, LMD
T:George Frederick Root, 1881
T:Public Domain Courtesy of the Cyber Hymnal™
C:George Frederick Root, 1881
Z:Public Domain
Z:Courtesy of the Cyber Hymnal™
%%score ( 1 2 ) ( 3 4 )
L:1/8
Q:1/4=100
M:4/4
K:Ab
V:1 treble 
V:2 treble 
V:3 bass 
V:4 bass 
V:1
 [CE]2 | [Ec]3 [EB] [FA]>[EG] [FA]>[DF] | [CE]6 [CE]2 | [DE]3 [DF] [DG][CA][DB][Ec] | [CA]6 [CE]2 | %5
 [Ec]3 [EB] [FA]>[EG] [FA]>[DF] | [CE]6 E2 | [EG]3 [EG] [=DB][DA][DF][B,D] | [B,E]6 || %9
[M:6/8] [B,E] | [DE]2 [DB] [DB]2 [DE] | [CE]2 [Ec] [Ec]2 E | [Ed]2 [Ed] (dc)[EB] | %13
 [Ec]2 [Ee] [Ee]2 [CE] | [DE]2 [DB] [DB]2 [DE] | [CE]2 [Ec] [Ec]2 [Ec] | [Dd]2 [Ec] [FB]2 [FA] | %17
 c3- ([Ac]2 [GB]) | A3- A2 |] %19
V:2
 x2 | x8 | x8 | x8 | x8 | x8 | x6 E2 | x8 | x6 ||[M:6/8] x | x6 | x5 E | x3 E2 x | x6 | x6 | x6 | %16
 x6 | E2 A x3 | A3- A2 |] %19
V:3
 [A,,A,]2 | [A,,C]3 [A,,C] [A,,D]>[A,,D] [A,,D]>[A,,A,] | [A,,A,]6 [A,,A,]2 | %3
 [E,G,]3 [E,A,] [E,B,][E,A,][E,G,][E,G,] | [A,,A,]6 [A,,A,]2 | %5
 [A,,C]3 [A,,C] [A,,D]>[A,,D] [A,,D]>[A,,A,] | [A,,A,]6 [A,,C]2 | %7
 [B,,B,]3 [B,,B,] [B,,F,][B,,F,][B,,A,][B,,A,] | [E,G,]6 ||[M:6/8] [E,G,] | %10
 [E,B,]2 [E,G,] [E,G,]2 [E,G,] | [A,,A,]2 [A,,A,] [A,,A,]2 [A,,C] | [E,B,]2 [E,B,] (B,A,)[E,G,] | %13
 A,2 [A,C] [A,C]2 [A,,A,] | [E,G,]2 [E,G,] E,2 [E,G,] | [A,,A,]2 [A,,A,] [A,,A,]2 [A,,A,] | %16
 [B,,F,]2 [C,F,] [D,F,]2 [=D,A,] | [E,A,]2 ([E,C] [E,E]2 [E,D]) | [A,,C]3- [A,,C]2 |] %19
V:4
 x2 | x8 | x8 | x8 | x8 | x8 | x8 | x8 | x6 ||[M:6/8] x | x6 | x6 | x3 E,2 x | A,2 x4 | x6 | x6 | %16
 x6 | x6 | x5 |] %19

